!!!OTL: 756. Vor dem Schlafengehen.
!!!ARE: Europa, Mitteleuropa, Deutschland
!!!SCT: B0756
!!!TXL: @@DE
!!!YEM: Copyright 1995, estate of Helmut Schaffrath.
**kern	**text
*ICvox	*
*Ivox	*
*clefG2	*
*M4/4	*
*met(c)	*
*k[f#c#g#]	*
*A:	*
!LO:TX:a:t=Sanft.	!
{8e	Mei-
8e	-nen
=1	=1
2cc#	Hei-
4a	-land
4dd	im
=2	=2
(4.cc#	Her-
8b)	.
4a}	-ʒen,
{4ee	da
=3	=3
(<4.b	ſchlaf
8a)	.
4g#	ich
4a	ſo
=4	=4
2b	ſüß,
4r}	.
{4f#	da
=5	=5
2dd	träum'
4b	ich
4cc#	ſo
=6	=6
(4.dd	ſe-
8cc#)	.
4b}	-lig
{4b	vom
=7	=7
(2ee	Pa-
4dd)	.
4dd	-ra-
=8	=8
2cc#	-dies,
4r}	.
{4b	da
=9	=9
2cc#	träum
4cc#	ich
4cc#	ſo
=10	=10
(4cc#	ſe-
4ee)	.
8eeL	-lig
8ddJ}	.
{8cc#L	vom
8bJ	.
=11	=11
2a	Pa-
4g#	-ra-
4g#	.
=12	=12
2a	-dies.
4r}	.
==	==
!!!AGN: Tageszeiten - Lied, Abend, religioes
!!!GTL: Religioese Lieder
!!!ONB: ESAC (Essen Associative Code) Database: BOEHME
!!!AMT: simple quadruple
!!!AIN: vox
!!!EED: Helmut Schaffrath
!!!EEV: 1.0
!!!RDF**kern: < = below
!!@@COMMENT:"Dichter und Komponist unbekannt."
!!@@END:
!!!URL-scan: https://archive.org/details/BoehmeVtLieder1895/page/n607/mode/2up
!!!ENC: Anna Maria Matuszewska
!!!EEV: 2024/19/07
*-	*-
